X: 1506
T: Gulgong Set Tune
B: australian traditional tunes wiki
M:2/4
L:1/16
R: Set Tune
Q: 1/4=100
K:D
V:1 
|:"D"D4 F3A|A6A2|f4e2d2|"A7"e4 "D"d4|"A7"E4F2G2|c6B2|1A2B2 G2A2|"D"F6E2:|2A2A2 B2c2|"D"d4d4||
|:"D"A3B A2F2|A3B A2F2|A2d2 c2B2|"A7"c2B2A4|"D"A3B A2F2|A3B A2F2|"A7"A2f2- f2e2|"D"d4d4:|
% abcbook-tune_id 6342d53a8777067846f551b1


% abcbook-boost 0
% abcbook-tablature 
% abcbook-transpose 
% abcbook-lastupdated 1665324368392
% abcbook-soundfonts 
% abcbook-repeats 1
% NFF Book 2014

